mobile/apps/auth/assets/custom-icons/icons/crowdpear.svg

<svg xmlns="http://www.w3.org/2000/svg" viewBox="0 0 349 289"><path fill="#ec5c54" fill-rule="evenodd" d="M239.5 5.541c-33.77 4.361-67.798 17.232-92.949 35.156-20.922 14.911-43.309 39.339-56.3 61.434-6.524 11.097-13.803 27.542-16.873 38.119-1.523 5.251-2.941 10.065-6.699 22.75-1.385 4.675-3.864 13.45-5.51 19.5a1532.086 1532.086 0 0 1-5.451 19.5c-1.353 4.675-5.042 17.725-8.197 29-3.155 11.275-6.989 24.775-8.52 30-1.531 5.225-3.006 10.4-3.279 11.5-.272 1.1-.795 2.723-1.161 3.607-.816 1.97 1.916 3.129 12.439 5.275 50.602 10.318 109.97-2.098 154-32.209 20.648-14.121 39.499-33.261 52.638-53.447 9.025-13.866 19.094-35.511 22.435-48.226.434-1.65 1.526-5.475 2.427-8.5a1074.4 1074.4 0 0 0 3.477-12c3.654-12.932 8.065-28.615 9.562-34a578.812 578.812 0 0 1 2.888-10c1.364-4.516 4.414-15.737 7.068-26 .782-3.025 3.499-12.475 6.038-21 6.164-20.694 6.899-23.968 5.665-25.202-1.387-1.387-11.513-3.521-25.16-5.302-13.585-1.773-34.612-1.753-48.538.045"/></svg>

<svg xmlns="http://www.w3.org/2000/svg" width="349" height="289" viewBox="0 0 349 289" version="1.1"><path d="" stroke="none" fill="#f05c54" fill-rule="evenodd"/><path d="M 239.500 5.541 C 205.730 9.902, 171.702 22.773, 146.551 40.697 C 125.629 55.608, 103.242 80.036, 90.251 102.131 C 83.727 113.228, 76.448 129.673, 73.378 140.250 C 71.855 145.501, 70.437 150.315, 66.679 163 C 65.294 167.675, 62.815 176.450, 61.169 182.500 C 59.524 188.550, 57.071 197.325, 55.718 202 C 54.365 206.675, 50.676 219.725, 47.521 231 C 44.366 242.275, 40.532 255.775, 39.001 261 C 37.470 266.225, 35.995 271.400, 35.722 272.500 C 35.450 273.600, 34.927 275.223, 34.561 276.107 C 33.745 278.077, 36.477 279.236, 47 281.382 C 97.602 291.700, 156.970 279.284, 201 249.173 C 221.648 235.052, 240.499 215.912, 253.638 195.726 C 262.663 181.860, 272.732 160.215, 276.073 147.500 C 276.507 145.850, 277.599 142.025, 278.500 139 C 279.402 135.975, 280.966 130.575, 281.977 127 C 285.631 114.068, 290.042 98.385, 291.539 93 C 292.380 89.975, 293.680 85.475, 294.427 83 C 295.791 78.484, 298.841 67.263, 301.495 57 C 302.277 53.975, 304.994 44.525, 307.533 36 C 313.697 15.306, 314.432 12.032, 313.198 10.798 C 311.811 9.411, 301.685 7.277, 288.038 5.496 C 274.453 3.723, 253.426 3.743, 239.500 5.541" stroke="none" fill="#ec5c54" fill-rule="evenodd"/></svg>
